src/icons/Klarna.svg

<?xml version="1.0" encoding="UTF-8"?>
<svg width="128px" height="128px" viewBox="0 0 128 128" version="1.1" xmlns="http://www.w3.org/2000/svg" xmlns:xlink="http://www.w3.org/1999/xlink">
    <!-- Generator: Sketch 41.2 (35397) - http://www.bohemiancoding.com/sketch -->
    <title>klarna</title>
    <desc>Created with Sketch.</desc>
    <defs></defs>
    <g id="Page-1" stroke="none" stroke-width="1" fill="none" fill-rule="evenodd">
        <g id="klarna" fill="#0072CC">
            <path d="M50.4869029,67.7473035 C50.6841294,89.2449923 62.9121726,109.164869 82.2403698,119.913713 C91.7072419,125.140216 102.357473,127.901387 113.303544,128 C113.106317,117.546995 110.246533,107.291217 104.822804,98.3174114 C93.5808937,79.6795069 72.7734977,68.0431433 50.4869029,67.7473035 L50.4869029,67.7473035 Z M50.4869029,60.2526965 C72.7734977,59.9568567 93.5808937,48.3204931 104.822804,29.6825886 C110.246533,20.7087827 113.106317,10.4530046 113.303544,0 C102.357473,0.0986132512 91.7072419,2.95839753 82.2403698,8.18489985 C62.9121726,18.9337442 50.6841294,38.853621 50.4869029,60.2526965 Z M39.6394453,0 L21.8890601,0 C17.550077,0 14,3.35285054 14,7.49460709 L14,124.942989 C14,126.323575 15.2819723,127.70416 17.155624,127.70416 L35.0046225,127.70416 C39.3436055,127.70416 42.7950693,124.35131 42.7950693,120.209553 L42.7950693,2.56394453 C42.7950693,1.08474576 41.5130971,0 39.6394453,0 L39.6394453,0 Z" id="Shape"></path>
        </g>
    </g>
</svg>

<svg width="128" height="128" viewBox="0 0 128 128" xmlns="http://www.w3.org/2000/svg"><title>klarna</title><path d="M50.487 67.747c.197 21.498 12.425 41.418 31.753 52.167 9.467 5.226 20.117 7.987 31.064 8.086-.198-10.453-3.057-20.709-8.481-29.683-11.242-18.637-32.05-30.274-54.336-30.57zm0-7.494c22.286-.296 43.094-11.933 54.336-30.57 5.424-8.974 8.283-19.23 8.48-29.683-10.946.099-21.596 2.958-31.063 8.185-19.328 10.749-31.556 30.669-31.753 52.068zM39.639 0H21.89C17.55 0 14 3.353 14 7.495v117.448c0 1.38 1.282 2.761 3.156 2.761h17.849c4.339 0 7.79-3.353 7.79-7.494V2.564C42.795 1.084 41.513 0 39.64 0z" fill="#0072CC" fill-rule="evenodd"/></svg>
